X:1
T:Eye Hath Not Seen
T:George Coles Stebbins
T:Eye Hath Not Seen
T:Public Domain
T:Public Domain
T:Public Domain
C:George Coles Stebbins
Z:Public Domain
%%score ( 1 2 ) ( 3 4 )
L:1/8
M:3/4
K:Db
V:1 treble 
V:2 treble 
V:3 bass 
V:4 bass 
V:1
 [FA]2 | [FA]3 [DA] [DG][DF] | [GB][GA] [FA]3 [Ad] | [Gd]3 [Gc] [GB]>[Gc] | [Fd]4 [FA]2 | %5
w: 1.~They|tell me of a|land so fair, Un-|seen by mor- tal|eyes, Where|
w: 2.~They|tell me of a|land so fair, Where|all is light and|song, Where|
w: 3.~No|ra- diant beams from|sun or moon A-|dorn that land so|fair, For|
w: 4.~O|land of light and|love and joy, Where|comes no night of|care, What|
 [GB]3 [GB] [DG][GB] | [Ad][GA] [FA]3 [FB] | [Ec]3 [Ae] [=Ge]>[EG] | [EA]4 || %9
w: spring in fade- less|beau- ty blooms, Be-|neath un- cloud- ed|skies.|
w: an- gel choirs their|an- thems join With|yon- der blood- washed|throng.|
w: He who sits up-|on the throne Shines|forth re- splen- dent|there.|
w: will our song of|tri- umph be When|we shall en- ter|there!|
"^Refrain" [FA]4 [GB][GA] | [Fd]4 z2 | [Gc]4 [Fd][Ge] | [FA]4 z2 | [GB]2 [GB] [DG]2 [GB] | %14
w: |||||
w: “Eye hath not|seen,|ear hath not|heard,|Nei- ther hath it|
w: |||||
w: |||||
 [FA]2 [FA][DF] [FA][Fd] | (E2 A) [=GB]3 | ([G-B]3 [GA]2) [GA] | ([FA]3- [FA] [GB])[FA] | %18
w: ||||
w: en- tered in- to the|heart * of|The * things|which * * God|
w: ||||
w: ||||
 [Fd]4 [Ec][Fd] | [Ge]3 [GA]3 | [Af]3- [Af]2 [Af] | [Ge]3 [GB]3 | (d3- d c)[FB] | %23
w: |||||
w: hath pre- pared|for them,|Pre- * pared|for them|that * * love|
w: |||||
w: |||||
 ([Gc]3- [Gc]2 [Gd]) | (F2 G [Fd]3) |] %25
w: ||
w: ||
w: ||
w: ||
V:2
 x2 | x6 | x6 | x6 | x6 | x6 | x6 | x6 | x4 || x6 | x6 | x6 | x6 | x6 | x6 | c3 x3 | x6 | x6 | x6 | %19
w: |||||||||||||||||||
w: |||||||||||||||man,||||
 x6 | x6 | x6 | F4 x2 | x6 | d3- x3 |] %25
w: ||||||
w: |||Him.”|||
V:3
 [D,D]2 | [D,A,]3 [D,F,] [D,B,][D,A,] | [A,,C][C,E] [D,D]3 [F,D] | [A,E]3 [A,E] [A,,D]>[A,,A,] | %4
w: ~|~ ~ ~ ~|~ ~ ~ ~|~ ~ ~ ~|
 [D,A,]4 [D,D]2 | [G,D]3 [G,D] [G,B,][G,D] | [F,D][E,C] [D,D]3 [D,A,] | %7
w: ~ ~|~ ~ ~ ~|~ ~ ~ ~|
 [E,A,]3 [E,C] [E,B,]>[E,D] | [A,,C]4 || [D,D][D,D] [D,D] [D,D]2 z | %10
w: ~ ~ ~ ~|~|“Eye hath not seen,|
 [D,A,][D,A,] [D,A,] [D,A,]2 z | [A,,A,][A,,A,] [A,,A,] [A,,A,]2 z | [D,A,][D,D] [D,D] [D,D]2 z | %13
w: eye hath not seen,|ear hath not heard,|ear hath not heard,|
 [G,D][G,D] [G,D] [G,B,]2 [G,D] | [D,D][D,D] [D,D] [D,A,]2 [D,A,] | (A,C) [E,E] [E,D]2 [E,D] | %16
w: Nei- ther hath en- tered,|en- tered in- to the|heart, * the heart of|
 [A,,C]2 [A,,C] [A,,C]2 [A,,C] | [D,D]2 [D,D] [D,D]2 [D,D] | [D,A,][D,A,] [D,A,] [D,A,]2 [D,A,] | %19
w: of man, The things,|the things which God|hath pre- pared, which God|
 A,[A,C] [A,C] [A,C]2 [A,C] | [D,D]2 [D,D] [D,D]2 [D,D] | [G,B,]2 [G,B,] [G,E]2 [G,E] | %22
w: hath pre- pared for them,|them, pre- pared, pre-|pared for them, for|
 [A,D]2 A, A,2 [A,D] | [A,E](A, A, A,2) E | (DA, B,) A,3 |] %25
w: them that love Him,|Him.” * * * *||
V:4
 x2 | x6 | x6 | x6 | x6 | x6 | x6 | x6 | x4 || x6 | x6 | x6 | x6 | x6 | x6 | E,2 x4 | x6 | x6 | %18
w: |||||||||||||||man,|||
 x6 | A, x5 | x6 | x6 | x2 A, A,2 x | x E4 x | D,6 |] %25
w: |for|||that love|||

